packages/ffe-icons/icons/filled/sm/grid_on.svg

<svg xmlns="http://www.w3.org/2000/svg" height="20" viewBox="0 -960 960 960" width="20"><path d="M228.309-164.001h111.692v-175.616h-176v111.308q0 26.527 18.891 45.417 18.89 18.891 45.417 18.891Zm163.691 0h176v-175.616H392v175.616Zm227.999 0h111.692q26.527 0 45.417-18.891 18.891-18.89 18.891-45.417v-111.308h-176v175.616ZM164.001-391.615h176v-176.77h-176v176.77Zm227.999 0h176v-176.77H392v176.77Zm227.999 0h176v-176.77h-176v176.77ZM164.001-620.383h176v-175.616H228.309q-26.527 0-45.417 18.891-18.891 18.89-18.891 45.417v111.308Zm227.999 0h176v-175.616H392v175.616Zm227.999 0h176v-111.308q0-26.527-18.891-45.417-18.89-18.891-45.417-18.891H619.999v175.616Z"/></svg>

<svg xmlns="http://www.w3.org/2000/svg" height="20" viewBox="0 -960 960 960" width="20"><path d="M228.31-164H340v-175.62H164v111.31q0 26.53 18.89 45.42T228.31-164ZM392-164h176v-175.62H392V-164Zm228 0h111.69q26.53 0 45.42-18.89T796-228.31v-111.31H620V-164ZM164-391.62h176v-176.76H164v176.76Zm228 0h176v-176.76H392v176.76Zm228 0h176v-176.76H620v176.76ZM164-620.38h176V-796H228.31q-26.53 0-45.42 18.89T164-731.69v111.31Zm228 0h176V-796H392v175.62Zm228 0h176v-111.31q0-26.53-18.89-45.42T731.69-796H620v175.62Z"/></svg>
